X:1
T:Title
%%score [ ( 1 2 ) ( 3 4 ) ] { ( 5 6 ) | ( 7 8 ) }
L:1/8
Q:1/4=120
M:4/4
K:D
V:1 treble nm="Midi_74"
V:2 treble 
V:3 bass nm="Midi_74"
V:4 bass 
V:5 treble nm="Org."
V:6 treble 
V:7 bass 
V:8 bass 
V:1
 F8 | A4 (G2 F2) | E8 || D8 | d4 (=c2 B2) | A4 F4 | G8 || B8 | A4 G4 | c8 || A8 | d4 (c2 B2) | %12
"^John Camidge\n(1790-1859)" A4 (E2 F2) | D8 |] %14
V:2
 A,8 | =C4 B,4 | (D4 !courtesy!^C4) || D8 | D4 D4 | E4 D4 | D8 || D8 | D4 D4 | G8 || (E6 C2) | %11
 D4 D4 | F4 C4 | D8 |] %14
V:3
 D8 | D4 D4 | (D4 E4) || B,8 | A,4 G,4 | G,4 =C4 | B,8 || B,8 | =C4 D4 | E8 || (C6 A,2) | A,4 B,4 | %12
 D4 G,4 | F,8 |] %14
V:4
 D,8 | F,,4 G,,4 | A,,8 || B,,8 | F,,4 G,,4 | =C,4 D,4 | G,,8 || G,8 | A,4 _B,4 | A,8 || G,8 | %11
 F,4 G,4 | A,4 A,,4 | D,8 |] %14
V:5
 [DF]8 | [=CDA]4 G2 F2 | E8 || [B,D]8 | d4 =c2 B2 | [EGA]4 [DFA=c]2 [=CDF]2 | G8 || B8 | A4 G4 | %9
 c8 || [CEA]8 | [DAd]4 c2 B2 | [DFA]4 !turn!E2 F2 | D8 |] %14
V:6
 x8 | x4 [B,D]4 |{D} !courtesy!^C8 || D8 | D4 D4 | x8 | D8 || D8 | D4 D4 | G8 || x8 | x4 [DG]4 | %12
 x8 | D8 |] %14
V:7
 x8 | x8 | %2
"^Two errors in original: bar 1 has B in bass voice; bar 6 has C# on last crotchet of right hand." A,6 G,2 || %3
 F,8 | x8 | x8 | x8 || x8 | x8 | x8 || x8 | x8 | x4"^8" [A,C]4 | [F,A,]8 |] %14
V:8
 [D,,D,A,]8 | [F,,D,]4 [G,,D,]4 | A,,8 || B,,6 A,,G,, | [F,,F,]4 [G,,G,]4 | =C,4 D,4 | %6
 [G,,D,G,]8 || [G,,G,]8 | [A,,A,]4 [_B,,_B,]4 | [A,,A,]8 || [G,,G,]8 | [F,,F,]4 [G,,G,]4 | %12
 [A,,A,]4 A,,4 | [D,,D,]8 |] %14

